X:0
T:MISSIONARY, OR WHITE PILGRIM
M:2/2
L:1/4
S:Thomas Commuck, Indian Melodies, 1845, no. 104
B:Marion J. Hatchett, A Companion to The New Harp of Columbia, 2003, p. 154
K:D
(D F)|A2 B/A/ F|A2 B c|d2 A F|(E HD) (d e)|
w:I_ came to_ the spot where the white pil-grim lay,_ And_
f2 e d|e2 d B|A2 ||(e g)|(f d) e d|
w:pen-sive-ly stood by his tomb, When_ in_ a low
A2 F A|d2 A F|(E HD) (D F)|A2 B/A/ F|A2 d c|Hd2||
w:whis-per I heard some-thing say,_ How_ sweet-ly_ I sleep here a-lone!
Contact us
suse.folkinfo.org
